public/assets/img/main-point3.svg

<svg width="56" height="59" viewBox="0 0 56 59" fill="none" xmlns="http://www.w3.org/2000/svg">
<path d="M43.8497 0.929443C44.0577 1.00391 44.2656 1.07838 44.4736 1.13795C46.4343 1.7337 47.8009 3.53583 47.8603 5.57625C47.8752 6.08263 47.8603 6.57412 47.8752 7.08051C47.89 7.92944 47.5038 8.56987 46.8205 9.06136C46.672 9.16561 46.5086 9.35923 46.5086 9.50817C46.4789 10.9082 46.4937 12.2933 46.4937 13.7826C46.7166 13.7826 46.9097 13.7826 47.1028 13.7826C48.4991 13.7826 49.8805 13.7826 51.2768 13.7826C53.3713 13.7975 54.9012 15.272 54.9458 17.372C54.9904 19.0699 54.9607 20.7528 54.9458 22.4507C54.9458 23.0911 54.6042 23.4784 54.0843 23.4784C53.5792 23.4784 53.2376 23.0911 53.2376 22.4507C53.2227 20.8273 53.2376 19.2188 53.2376 17.5954C53.2376 16.1954 52.5097 15.4656 51.1134 15.4656C44.2508 15.4656 37.3732 15.4656 30.5106 15.4656C29.0994 15.4656 28.3716 16.2103 28.3716 17.655C28.3716 19.8443 28.3864 22.0486 28.3567 24.238C28.3567 24.655 28.4161 24.8784 28.8915 25.0124C30.2878 25.4443 31.0602 26.6507 31.0751 28.2741C31.0751 33.055 31.0751 37.8358 31.0751 42.6316C31.0751 42.855 31.0751 43.0784 31.0751 43.3316C31.491 43.3316 31.8772 43.3316 32.3228 43.3316C32.3228 43.0933 32.3228 42.855 32.3228 42.6167C32.3228 34.738 32.3228 26.8741 32.3228 18.9954C32.3228 18.7571 32.3228 18.5039 32.3822 18.2805C32.4714 17.8933 32.7387 17.6699 33.1398 17.655C33.5557 17.6401 33.8676 17.8188 33.9716 18.2358C34.031 18.489 34.0459 18.7571 34.0459 19.0103C34.0459 27.2018 34.0459 35.3933 34.0459 43.5848C34.0459 43.972 34.1202 44.2848 34.3876 44.5975C34.8629 45.1486 35.0857 45.8039 35.0857 46.5486C35.0857 48.2018 35.0857 49.855 35.0857 51.5231C35.0857 51.8358 35.0263 52.1486 34.9966 52.5507C35.1897 52.5507 35.3828 52.5507 35.5759 52.5507C40.7749 52.5507 45.9739 52.5507 51.1728 52.5507C52.584 52.5507 53.297 51.8507 53.297 50.4358C53.297 42.6763 53.297 34.9167 53.297 27.1571C53.297 26.9337 53.297 26.7103 53.3267 26.4869C53.401 26.055 53.6832 25.7869 54.1288 25.772C54.5893 25.7571 54.8864 26.0401 54.9755 26.5018C55.0052 26.6656 55.0052 26.8294 55.0052 27.0082C55.0052 34.8124 55.0052 42.6018 55.0052 50.406C55.0052 52.789 53.5347 54.2486 51.1431 54.2635C50.7569 54.2635 50.3707 54.2635 49.9102 54.2635C49.9102 54.7848 49.9102 55.2614 49.9102 55.738C49.8954 57.0635 48.9298 58.0465 47.6375 58.0614C46.3452 58.0614 45.3648 57.0933 45.35 55.7677C45.3351 55.2911 45.35 54.8145 45.35 54.3082C42.3494 54.3082 39.4083 54.3082 36.4077 54.3082C36.4077 54.755 36.4077 55.1571 36.4077 55.5592C36.3929 57.0486 35.4273 58.0763 34.0608 58.0614C32.7387 58.0465 31.7881 57.0188 31.7732 55.5592C31.7732 55.3209 31.7732 55.0826 31.7732 54.7997C31.5504 54.7997 31.3573 54.7997 31.179 54.7997C31.0899 55.2465 31.0305 55.6635 30.8968 56.0656C30.4957 57.1975 29.6045 57.7933 28.5201 58.1507C21.2118 58.1507 13.8887 58.1507 6.58043 58.1507C6.17936 57.9422 5.73373 57.7784 5.36238 57.5252C4.45627 56.8848 4.07006 55.9316 4.01064 54.7997C3.669 54.7699 3.3422 54.7699 3.01541 54.7252C1.36659 54.5316 0.193105 53.4592 0.0891254 51.806C-0.0297085 49.989 -0.0297085 48.1571 0.0891254 46.3401C0.207959 44.538 1.5894 43.4209 3.40162 43.406C3.57987 43.406 3.77298 43.406 4.04035 43.406C4.04035 43.1231 4.0255 42.8699 4.04035 42.6167C4.07006 42.0656 4.41171 41.7231 4.91675 41.7231C5.39209 41.738 5.68917 42.0507 5.73373 42.6018C5.74859 42.7805 5.73373 42.9741 5.73373 43.1528C5.73373 46.9358 5.73373 50.7039 5.73373 54.4869C5.73373 55.9316 6.26849 56.4677 7.7242 56.4677C14.2898 56.4677 20.8702 56.4528 27.4358 56.4826C28.5795 56.4826 29.4411 55.9614 29.4411 54.4869C29.3965 48.5145 29.4262 42.5422 29.4262 36.5699C29.4262 36.3763 29.4262 36.1677 29.4262 36.0486C28.535 36.1528 27.6883 36.2422 26.797 36.3316C26.797 36.555 26.797 36.8082 26.797 37.0763C28.0745 37.672 28.4904 38.5209 28.1488 39.906C27.9854 40.606 27.4209 41.1273 26.6782 41.1422C25.2076 41.172 23.7519 41.1869 22.2813 41.1422C21.4347 41.1124 20.8405 40.4571 20.8256 39.6082C20.8108 39.1167 20.8108 38.5954 20.9593 38.1337C21.0633 37.8209 21.3901 37.4486 21.6872 37.3592C22.2962 37.1656 22.2368 36.7933 22.1625 36.3167C19.0877 36.3167 16.0426 36.3167 12.9529 36.3167C12.9529 36.5997 12.9529 36.8528 12.9529 37.106C14.2304 37.672 14.676 38.6103 14.2898 39.9805C14.0818 40.7103 13.5322 41.172 12.7301 41.172C11.3338 41.1869 9.95234 41.2018 8.55604 41.172C7.64993 41.1571 7.05576 40.5465 6.98149 39.6231C6.96664 39.4592 6.96664 39.2954 6.96664 39.1167C6.96664 37.955 7.23401 37.5528 8.33323 37.1358C8.33323 36.8826 8.33323 36.6145 8.33323 36.3614C7.47168 36.272 6.63984 36.1826 5.71888 36.0784C5.71888 36.7039 5.71888 37.4188 5.71888 38.1337C5.71888 39.0869 5.46636 39.5039 4.88704 39.5039C4.29287 39.5039 4.0255 39.0869 4.0255 38.1486C4.0255 34.9167 4.07006 31.6699 4.01064 28.438C3.98093 26.189 5.68917 24.789 7.54595 24.8635C9.40273 24.9528 11.2595 24.8784 13.1163 24.8784C13.3242 24.8784 13.5174 24.8784 13.7996 24.8784C13.7996 24.3422 13.7847 23.8507 13.7996 23.3592C13.859 21.5422 15.2553 19.9635 16.9932 19.755C18.9837 19.5167 20.7514 20.6337 21.2118 22.4954C21.3901 23.2401 21.3752 24.0443 21.4495 24.8933C22.2962 24.8933 23.1726 24.8933 24.0639 24.8933C24.9254 24.8933 25.8018 24.8933 26.7228 24.8933C26.7228 24.6401 26.7228 24.4316 26.7228 24.238C26.7228 22.0486 26.7822 19.8443 26.7079 17.655C26.6336 15.3614 28.4756 13.738 30.5552 13.8273C32.0406 13.8869 33.526 13.8422 35.0114 13.8273C35.0411 13.8273 35.0857 13.8124 35.1897 13.7826C35.1897 13.5146 35.1897 13.2316 35.1897 12.9337C35.1897 12.1592 35.1748 11.3699 35.1897 10.5954C35.2194 9.86561 35.264 9.1954 34.4618 8.76349C34.1647 8.59966 33.9271 8.10817 33.8677 7.73583C33.63 6.26136 33.63 4.80178 34.3876 3.46136C35.0857 2.24008 36.1403 1.46561 37.4921 1.10817C37.6109 1.07838 37.7298 1.0337 37.8634 0.989018C39.8391 0.929443 41.8444 0.929443 43.8497 0.929443ZM12.9232 26.5316C12.9232 29.2273 12.9232 31.8635 12.9232 34.5145C16.0129 34.5145 19.058 34.5145 22.118 34.5145C22.118 31.8337 22.118 29.1826 22.118 26.5316C19.0283 26.5316 15.9832 26.5316 12.9232 26.5316ZM36.8236 13.7528C39.4974 13.7528 42.1118 13.7528 44.7558 13.7528C44.7558 12.2933 44.7558 10.8635 44.741 9.4337C44.741 9.31455 44.5924 9.15072 44.4587 9.07625C43.7309 8.59966 43.3595 7.94434 43.3595 7.08051C43.3595 6.75285 43.3447 6.41029 43.3595 6.08263C43.3892 5.62093 43.1813 5.4571 42.7356 5.472C41.7107 5.48689 40.7006 5.472 39.6757 5.472C38.2496 5.472 38.2496 5.472 38.2496 6.872C38.2496 7.84008 37.9229 8.59966 37.0762 9.12093C36.9573 9.1954 36.8385 9.35923 36.8385 9.49327C36.8236 10.8784 36.8236 12.2933 36.8236 13.7528ZM26.7376 34.5443C27.1684 34.5443 27.5397 34.5592 27.9111 34.5443C28.7281 34.4848 29.352 33.8741 29.3668 33.0699C29.3817 31.372 29.3817 29.689 29.3668 27.9911C29.3668 27.306 28.9063 26.7252 28.223 26.5911C27.7477 26.5018 27.2427 26.5167 26.7376 26.4869C26.7376 29.2273 26.7376 31.8486 26.7376 34.5443ZM8.28866 34.5145C8.28866 31.8337 8.28866 29.1826 8.28866 26.5018C8.09556 26.5018 7.94701 26.5018 7.79847 26.5018C6.17936 26.4869 5.68917 26.9784 5.68917 28.572C5.68917 29.7784 5.73373 30.9997 5.67432 32.206C5.60005 34.038 6.22392 34.6784 8.0807 34.5443C8.14012 34.5443 8.19954 34.5294 8.28866 34.5145ZM40.8343 2.56774C40.8343 2.58263 40.8343 2.59753 40.8343 2.61242C40.0767 2.61242 39.3192 2.59753 38.5467 2.61242C37.1059 2.6571 35.8284 3.61029 35.5313 4.98051C35.3828 5.63583 35.4273 6.35072 35.4125 7.03583C35.3976 7.42306 35.5907 7.69115 36.0067 7.67625C36.3929 7.66136 36.5414 7.39327 36.5414 7.02093C36.5414 6.57412 36.5266 6.12732 36.5563 5.68051C36.6454 4.56349 37.4327 3.77412 38.5467 3.74434C40.047 3.71455 41.5473 3.71455 43.0476 3.74434C44.1913 3.77412 45.0083 4.65285 45.038 5.79966C45.0529 6.18689 45.0529 6.57412 45.038 6.97625C45.0232 7.36349 45.1569 7.66136 45.5876 7.66136C46.0481 7.66136 46.1818 7.36349 46.1818 6.96136C46.1818 6.55923 46.1818 6.14221 46.1818 5.74008C46.1521 4.23583 45.1272 2.95498 43.6417 2.71668C42.7356 2.56774 41.7701 2.59753 40.8343 2.56774ZM31.0899 52.9528C32.6942 53.1763 33.3775 52.5805 33.3775 51.0316C33.3775 49.6763 33.3775 48.3209 33.3775 46.9507C33.3775 45.506 32.5456 44.8358 31.0899 45.1188C31.0899 47.7103 31.0899 50.3167 31.0899 52.9528ZM3.95123 52.9826C3.95123 50.3018 3.95123 47.6954 3.95123 45.089C2.33211 44.9401 1.70824 45.506 1.70824 47.0699C1.70824 48.5294 1.69338 50.0039 1.72309 51.4635C1.73795 52.2528 2.22814 52.8635 2.94114 52.9677C3.25308 53.0124 3.59472 52.9826 3.95123 52.9826ZM19.5927 24.8188C19.5927 24.2528 19.6373 23.6869 19.5779 23.1507C19.4739 22.2124 18.6866 21.4528 17.7954 21.3784C16.7556 21.2741 15.8049 21.8401 15.5672 22.8082C15.4038 23.4486 15.4484 24.1486 15.4038 24.8337C16.8744 24.8188 18.2113 24.8188 19.5927 24.8188ZM11.1704 37.106C11.1704 33.5614 11.1704 30.0465 11.1704 26.5465C10.7842 26.5465 10.4425 26.5465 10.086 26.5465C10.086 30.0763 10.086 33.5763 10.086 37.106C10.4722 37.106 10.799 37.106 11.1704 37.106ZM23.9153 26.5316C23.9153 30.0911 23.9153 33.5763 23.9153 37.0911C24.3015 37.0911 24.6432 37.0911 24.9848 37.0911C24.9848 33.5614 24.9848 30.0614 24.9848 26.5316C24.6283 26.5316 24.3015 26.5316 23.9153 26.5316ZM12.5964 38.8188C11.2447 38.8188 9.95234 38.8188 8.63031 38.8188C8.64516 39.0273 8.66002 39.206 8.66002 39.3699C9.9969 39.3699 11.2892 39.3699 12.5964 39.3699C12.5964 39.1763 12.5964 39.0124 12.5964 38.8188ZM26.4702 38.8188C25.1037 38.8188 23.7965 38.8188 22.4596 38.8188C22.4745 39.0273 22.4893 39.206 22.5042 39.3848C23.841 39.3848 25.1334 39.3848 26.4405 39.3848C26.4405 39.1911 26.4554 39.0273 26.4702 38.8188ZM46.9691 54.2635C46.9691 54.7848 46.9542 55.2465 46.9691 55.7082C46.9839 56.0656 47.1919 56.3635 47.5484 56.3039C47.7861 56.2592 48.1129 55.9763 48.1574 55.7528C48.2466 55.2763 48.1871 54.7699 48.1871 54.2635C47.7564 54.2635 47.3999 54.2635 46.9691 54.2635ZM34.6104 54.2337C34.2836 54.2337 34.0013 54.2039 33.734 54.2486C33.6151 54.2635 33.4517 54.4273 33.4369 54.5316C33.4072 54.9784 33.3775 55.4252 33.4814 55.8571C33.526 56.0507 33.8528 56.3039 34.0459 56.289C34.239 56.289 34.5509 56.006 34.5807 55.8124C34.6698 55.3209 34.6104 54.8145 34.6104 54.2337Z" fill="white"/>
<path d="M17.528 43.2422C19.7561 43.2422 21.9843 43.2422 24.2124 43.2422C25.6978 43.2422 26.4702 44.0167 26.4702 45.506C26.4702 47.4273 26.4702 49.3337 26.4702 51.255C26.4702 52.5954 25.6533 53.4145 24.3312 53.4145C19.8007 53.4145 15.2702 53.4145 10.7545 53.4145C9.46216 53.4145 8.60061 52.6103 8.58576 51.3145C8.55605 49.3188 8.55605 47.3379 8.58576 45.3422C8.60061 44.0464 9.4473 43.2422 10.7396 43.2273C12.9975 43.2273 15.2702 43.2422 17.528 43.2422ZM17.4983 44.9252C15.3147 44.9252 13.1163 44.9401 10.9327 44.9103C10.4574 44.9103 10.2791 45.0443 10.2791 45.5507C10.294 47.3975 10.294 49.2294 10.2791 51.0762C10.2791 51.5826 10.4425 51.7613 10.9476 51.7613C15.3296 51.7464 19.6967 51.7464 24.0787 51.7613C24.5986 51.7613 24.8066 51.5975 24.8066 51.0613C24.7769 49.2443 24.7917 47.4124 24.8066 45.5954C24.8066 45.0741 24.6135 44.9252 24.1233 44.9252C21.91 44.9401 19.7116 44.9252 17.4983 44.9252Z" fill="white"/>
<path d="M39.0963 33.2635C39.0963 37.9699 39.0963 42.6763 39.0963 47.3827C39.0963 47.5912 39.0963 47.7997 39.0815 47.9933C39.0369 48.4401 38.7695 48.7082 38.3239 48.738C37.8486 48.7678 37.5515 48.5146 37.4327 48.0678C37.3881 47.889 37.403 47.6954 37.403 47.5167C37.403 37.9699 37.403 28.4231 37.403 18.8763C37.403 18.6529 37.403 18.4295 37.4772 18.2209C37.6109 17.8188 37.908 17.6252 38.3388 17.6699C38.7695 17.6997 39.022 17.938 39.0815 18.3699C39.1112 18.5933 39.1112 18.8167 39.1112 19.0401C39.0963 23.7763 39.0963 28.5124 39.0963 33.2635Z" fill="white"/>
<path d="M47.6227 33.1742C47.6227 28.4529 47.6227 23.7167 47.6227 18.9955C47.6227 18.8167 47.6227 18.6231 47.6375 18.4444C47.6821 17.9678 47.9494 17.6997 48.4248 17.6699C48.8853 17.6401 49.2418 17.9529 49.3012 18.4295C49.3161 18.5933 49.316 18.7572 49.316 18.9359C49.316 28.4678 49.316 37.9848 49.316 47.5167C49.316 47.6806 49.3309 47.8593 49.3012 48.0231C49.2418 48.4848 48.8704 48.7976 48.4248 48.7678C47.9494 48.738 47.6821 48.455 47.6524 47.9784C47.6375 47.7997 47.6375 47.6061 47.6375 47.4274C47.6227 42.6614 47.6227 37.9104 47.6227 33.1742Z" fill="white"/>
<path d="M42.5128 33.2039C42.5128 28.4379 42.5128 23.672 42.5128 18.9209C42.5128 18.7422 42.4831 18.5486 42.5277 18.3698C42.6316 17.9081 42.9139 17.6549 43.3892 17.6847C43.8348 17.6996 44.1022 17.9528 44.1616 18.4145C44.1913 18.5932 44.1765 18.7869 44.1765 18.9656C44.1765 28.4677 44.1765 37.9847 44.1765 47.4869C44.1765 48.3954 43.9239 48.7826 43.3298 48.7677C42.7505 48.7528 42.5128 48.3805 42.5128 47.4571C42.5128 42.6911 42.5128 37.9401 42.5128 33.2039Z" fill="white"/>
</svg>

<svg width="56" height="59" fill="none" xmlns="http://www.w3.org/2000/svg"><path d="M43.85.93c.208.074.416.148.624.208a4.799 4.799 0 0 1 3.386 4.438c.015.507 0 .998.015 1.505.015.848-.371 1.489-1.054 1.98-.149.105-.312.298-.312.447-.03 1.4-.015 2.785-.015 4.275h4.783c2.094.014 3.624 1.489 3.669 3.589.044 1.698.015 3.38 0 5.079 0 .64-.342 1.027-.862 1.027-.505 0-.846-.387-.846-1.027-.015-1.624 0-3.232 0-4.856 0-1.4-.728-2.13-2.125-2.13H30.511c-1.412 0-2.14.745-2.14 2.19 0 2.19.015 4.394-.014 6.583 0 .417.06.64.535.774 1.396.432 2.168 1.639 2.183 3.262v15.058h1.248V18.995c0-.238 0-.491.06-.715.088-.387.356-.61.757-.625.416-.015.728.164.832.58.059.254.074.522.074.775v24.575c0 .387.074.7.342 1.012.475.552.698 1.207.698 1.952v4.974c0 .313-.06.626-.09 1.028h16.177c1.411 0 2.124-.7 2.124-2.115V27.157c0-.223 0-.447.03-.67.074-.432.356-.7.802-.715.46-.015.757.268.846.73.03.164.03.327.03.506v23.398c0 2.383-1.47 3.843-3.862 3.858H49.91v1.474c-.015 1.325-.98 2.309-2.272 2.323-1.293 0-2.273-.968-2.288-2.293-.015-.477 0-.953 0-1.46h-8.942v1.251c-.015 1.49-.98 2.517-2.347 2.502-1.322-.014-2.273-1.042-2.288-2.502v-.76h-.594c-.09.447-.148.864-.282 1.267-.401 1.131-1.292 1.727-2.377 2.085H6.58c-.4-.209-.846-.373-1.218-.626-.906-.64-1.292-1.593-1.351-2.725-.342-.03-.669-.03-.996-.075C1.367 54.532.193 53.46.09 51.806a41.946 41.946 0 0 1 0-5.466c.119-1.802 1.5-2.92 3.313-2.934h.638c0-.283-.014-.536 0-.79.03-.55.372-.893.877-.893.475.015.772.328.817.879.015.179 0 .372 0 .55v11.335c0 1.445.534 1.98 1.99 1.98 6.566 0 13.146-.014 19.712.016 1.143 0 2.005-.522 2.005-1.996-.044-5.973-.015-11.945-.015-17.917v-.521c-.891.104-1.738.193-2.629.283v.744c1.277.596 1.693 1.445 1.352 2.83-.164.7-.728 1.221-1.47 1.236-1.471.03-2.927.045-4.398 0-.846-.03-1.44-.685-1.455-1.534-.015-.491-.015-1.013.133-1.474.104-.313.431-.685.728-.775.61-.193.55-.566.476-1.042h-9.21v.789c1.277.566 1.723 1.504 1.337 2.874-.208.73-.758 1.192-1.56 1.192-1.396.015-2.778.03-4.174 0-.906-.015-1.5-.625-1.575-1.549-.014-.164-.014-.328-.014-.506 0-1.162.267-1.564 1.366-1.981v-.775c-.861-.089-1.693-.178-2.614-.283v2.056c0 .953-.253 1.37-.832 1.37-.594 0-.861-.417-.861-1.355 0-3.232.044-6.48-.015-9.711-.03-2.249 1.678-3.649 3.535-3.575 1.857.09 3.713.015 5.57.015h.684c0-.536-.015-1.027 0-1.519.059-1.817 1.455-3.396 3.193-3.604 1.99-.238 3.758.879 4.219 2.74.178.745.163 1.55.238 2.398h5.273v-.655c0-2.19.06-4.394-.015-6.583-.074-2.294 1.768-3.917 3.847-3.828 1.486.06 2.971.015 4.456 0 .03 0 .075-.015.179-.044v-.85c0-.774-.015-1.563 0-2.338.03-.73.074-1.4-.728-1.832-.297-.163-.535-.655-.594-1.027-.238-1.475-.238-2.934.52-4.275.698-1.22 1.752-1.995 3.104-2.353.119-.03.238-.074.371-.119 1.976-.06 3.981-.06 5.987-.06ZM12.923 26.531v7.982h9.195v-7.982h-9.195Zm23.9-12.78h7.933c0-1.459 0-2.889-.015-4.318 0-.12-.149-.283-.282-.358-.728-.476-1.1-1.132-1.1-1.995 0-.328-.014-.67 0-.998.03-.462-.178-.626-.623-.611-1.025.015-2.035 0-3.06 0-1.426 0-1.426 0-1.426 1.4 0 .968-.327 1.728-1.174 2.249-.119.074-.237.238-.237.372-.015 1.385-.015 2.8-.015 4.26ZM26.739 34.545c.43 0 .802.015 1.173 0 .817-.06 1.441-.67 1.456-1.474.015-1.698.015-3.381 0-5.079 0-.685-.46-1.266-1.144-1.4-.475-.09-.98-.074-1.485-.104v8.057Zm-18.45-.03v-8.012h-.49c-1.619-.015-2.109.476-2.109 2.07 0 1.206.045 2.428-.015 3.634-.074 1.832.55 2.472 2.407 2.338.06 0 .119-.015.208-.03ZM40.835 2.568v.044c-.757 0-1.515-.014-2.287 0-1.441.045-2.719.998-3.016 2.369-.148.655-.104 1.37-.118 2.055-.015.387.178.655.594.64.386-.015.534-.283.534-.655 0-.447-.014-.894.015-1.34.09-1.118.877-1.907 1.99-1.937 1.501-.03 3.001-.03 4.502 0 1.143.03 1.96.909 1.99 2.056.015.387.015.774 0 1.176-.015.387.119.685.55.685.46 0 .594-.298.594-.7v-1.22c-.03-1.505-1.055-2.786-2.54-3.024-.906-.15-1.872-.12-2.808-.15ZM31.09 52.953c1.604.223 2.287-.373 2.287-1.921V46.95c0-1.445-.831-2.115-2.287-1.832v7.834Zm-27.139.03v-7.894c-1.619-.149-2.243.417-2.243 1.98 0 1.46-.015 2.935.015 4.395.015.789.505 1.4 1.218 1.504.312.044.654.015 1.01.015Zm15.642-28.164c0-.566.044-1.132-.015-1.668-.104-.939-.891-1.698-1.783-1.773-1.04-.104-1.99.462-2.228 1.43-.163.64-.119 1.34-.163 2.026 1.47-.015 2.807-.015 4.189-.015ZM11.17 37.106v-10.56h-1.084v10.56h1.084Zm12.745-10.574v10.56h1.07v-10.56h-1.07ZM12.596 38.819H8.63c.015.208.03.387.03.55h3.936v-.55Zm13.874 0h-4.01c.014.208.03.387.044.566h3.936c0-.194.015-.358.03-.566Zm20.5 15.444c0 .522-.016.983 0 1.445.014.358.222.656.578.596.238-.045.565-.328.61-.551.089-.477.03-.983.03-1.49h-1.219Zm-12.36-.03c-.326 0-.609-.03-.876.016-.119.014-.282.178-.297.283-.03.446-.06.893.044 1.325.045.194.372.447.565.432.193 0 .505-.283.535-.477.089-.491.03-.997.03-1.578Z" fill="#fff"/><path d="M17.528 43.242h6.684c1.486 0 2.258.775 2.258 2.264v5.749c0 1.34-.817 2.16-2.139 2.16H10.755c-1.293 0-2.154-.805-2.17-2.1-.029-1.996-.029-3.977 0-5.973.016-1.296.862-2.1 2.155-2.115 2.258 0 4.53.015 6.788.015Zm-.03 1.683c-2.183 0-4.382.015-6.565-.015-.476 0-.654.134-.654.64.015 1.848.015 3.68 0 5.526 0 .507.164.685.669.685 4.382-.015 8.749-.015 13.13 0 .52 0 .729-.164.729-.7-.03-1.817-.015-3.649 0-5.466 0-.52-.194-.67-.684-.67-2.213.015-4.411 0-6.625 0ZM39.096 33.264v14.119c0 .208 0 .417-.014.61-.045.447-.313.715-.758.745-.475.03-.773-.223-.891-.67-.045-.179-.03-.373-.03-.551v-28.64c0-.224 0-.447.074-.656.134-.402.431-.596.862-.551.43.03.683.268.742.7.03.223.03.447.03.67-.015 4.736-.015 9.472-.015 14.224ZM47.623 33.174V18.996c0-.18 0-.373.015-.552.044-.476.311-.744.787-.774.46-.03.817.283.876.76.015.163.015.327.015.506v28.58c0 .165.015.343-.015.507-.06.462-.43.775-.876.745-.476-.03-.743-.313-.773-.79-.014-.178-.014-.372-.014-.55-.015-4.767-.015-9.518-.015-14.254ZM42.513 33.204V18.92c0-.179-.03-.372.015-.551.104-.462.386-.715.861-.685.446.015.713.268.773.73.03.178.014.372.014.55v28.522c0 .908-.252 1.296-.846 1.28-.58-.014-.817-.387-.817-1.31V33.204Z" fill="#fff"/></svg>
